;FLAVOR:Marlin
;TIME:13083
;Filament used: 4.11956m
;Layer height: 0.1
;MINX:73
;MINY:89.5
;MINZ:0.2
;MAXX:146.999
;MAXY:130.5
;MAXZ:39.5
;Generated with Cura_SteamEngine 4.10.0
M140 S60
M105
M190 S60
M104 S200
M105
M109 S200
M82 ;absolute extrusion mode
; Ender 3 Custom Start G-code
G92 E0 ; Reset Extruder
G28 ; Home all axes
G1 Z2.0 F3000 ; Move Z Axis up little to prevent scratching of Heat Bed
G1 X0.1 Y20 Z0.3 F5000.0 ; Move to start position
G1 X0.1 Y200.0 Z0.3 F1500.0 E15 ; Draw the first line
G1 X0.4 Y200.0 Z0.3 F5000.0 ; Move to side a little
G1 X0.4 Y20 Z0.3 F1500.0 E30 ; Draw the second line
G92 E0 ; Reset Extruder
G1 Z2.0 F3000 ; Move Z Axis up little to prevent scratching of Heat Bed
G1 X5 Y20 Z0.3 F5000.0 ; Move over to prevent blob squish
G92 E0
G92 E0
G1 F1500 E-6.5
;LAYER_COUNT:394
;LAYER:0
M107
G0 F6000 X79.07 Y92.975 Z0.2
;TYPE:SKIRT
G1 F1500 E0
G1 F1200 X79.819 Y92.411 E0.03118
G1 X80.907 Y91.751 E0.07351
G1 X81.605 Y91.381 E0.09979
G1 X81.889 Y91.236 E0.11039
G1 X82.58 Y90.895 E0.13602
G1 X83.438 Y90.516 E0.16722
G1 X84.325 Y90.212 E0.1984
G1 X85.576 Y89.919 E0.24114
G1 X86.462 Y89.766 E0.27104
G1 X86.803 Y89.713 E0.28252
G1 X87.493 Y89.616 E0.3057
G1 X88.715 Y89.513 E0.34648
G1 X89.035 Y89.504 E0.35713
G1 X89.344 Y89.5 E0.36741
G1 X130.293 Y89.5 E1.72938
G1 X131.179 Y89.512 E1.75885
G1 X132.398 Y89.599 E1.7995
G1 X132.681 Y89.635 E1.80899
G1 X133.012 Y89.682 E1.8201
G1 X133.749 Y89.8 E1.84493
G1 X134.421 Y89.917 E1.86762
G1 X135.337 Y90.117 E1.8988
G1 X136.233 Y90.395 E1.93
G1 X137.385 Y90.881 E1.97159
G1 X138.197 Y91.28 E2.00168
G1 X138.491 Y91.431 E2.01267
G1 X139.073 Y91.739 E2.03457
G1 X139.883 Y92.212 E2.06577
G1 X140.649 Y92.753 E2.09696
G1 X141.583 Y93.562 E2.13806
G1 X142.134 Y94.096 E2.16358
G1 X142.347 Y94.308 E2.17358
G1 X142.898 Y94.872 E2.1998
G1 X143.525 Y95.57 E2.23101
G1 X144.089 Y96.319 E2.26219
G1 X144.749 Y97.407 E2.30452
G1 X145.119 Y98.105 E2.33079
G1 X145.267 Y98.395 E2.34162
G1 X145.608 Y99.087 E2.36728
G1 X145.986 Y99.945 E2.39847
G1 X146.29 Y100.832 E2.42965
G1 X146.578 Y102.061 E2.47164
G1 X146.727 Y102.916 E2.5005
G1 X146.778 Y103.237 E2.51131
G1 X146.878 Y103.932 E2.53467
G1 X146.985 Y105.17 E2.576
G1 X146.994 Y105.471 E2.58601
G1 X146.999 Y105.799 E2.59692
G1 X146.999 Y118.9 E3.03266
G1 X146.99 Y119.627 E3.05684
G1 X146.939 Y120.564 E3.08806
G1 X146.807 Y121.492 E3.11923
G1 X146.598 Y122.406 E3.15042
G1 X146.311 Y123.299 E3.18161
G1 X145.949 Y124.165 E3.21283
G1 X145.515 Y124.996 E3.24401
G1 X145.011 Y125.787 E3.27521
G1 X144.442 Y126.532 E3.30639
G1 X143.811 Y127.227 E3.33761
G1 X143.124 Y127.865 E3.36879
G1 X142.385 Y128.442 E3.39998
G1 X141.599 Y128.954 E3.43118
G1 X140.773 Y129.397 E3.46235
G1 X139.911 Y129.769 E3.49358
G1 X139.022 Y130.065 E3.52474
G1 X138.11 Y130.285 E3.55595
G1 X137.183 Y130.426 E3.58713
G1 X136.299 Y130.487 E3.6166
G1 X135.978 Y130.496 E3.62728
G1 X135.67 Y130.5 E3.63753
G1 X132.55 Y130.499 E3.7413
G1 X131.849 Y130.489 E3.76462
G1 X130.913 Y130.436 E3.7958
G1 X129.703 Y130.246 E3.83654
G1 X128.791 Y130.051 E3.86756
G1 X126.235 Y129.538 E3.95427
G1 X123.79 Y129.12 E4.03677
G1 X121.265 Y128.761 E4.12159
G1 X118.773 Y128.478 E4.20501
G1 X116.261 Y128.265 E4.28886
G1 X113.745 Y128.124 E4.37267
G1 X111.22 Y128.053 E4.45669
G1 X108.696 Y128.053 E4.54064
G1 X106.2 Y128.125 E4.62369
G1 X103.698 Y128.266 E4.70704
G1 X101.167 Y128.483 E4.79153
G1 X98.687 Y128.765 E4.87454
G1 X96.188 Y129.121 E4.9585
G1 X93.707 Y129.547 E5.04223
G1 X91.205 Y130.049 E5.1271
G1 X90.603 Y130.184 E5.14762
G1 X90.137 Y130.279 E5.16344
G1 X89.211 Y130.423 E5.19461
G1 X88.299 Y130.487 E5.22502
G1 X87.979 Y130.496 E5.23566
G1 X87.67 Y130.5 E5.24594
G1 X84.565 Y130.499 E5.34921
G1 X83.867 Y130.49 E5.37243
G1 X82.931 Y130.438 E5.40361
G1 X82.002 Y130.306 E5.43482
G1 X81.088 Y130.096 E5.46601
G1 X80.195 Y129.809 E5.49721
G1 X79.33 Y129.446 E5.52841
G1 X78.499 Y129.012 E5.55959
G1 X77.708 Y128.508 E5.59079
G1 X76.963 Y127.938 E5.62199
G1 X76.269 Y127.307 E5.65318
G1 X75.632 Y126.62 E5.68435
G1 X75.055 Y125.88 E5.71556
G1 X74.543 Y125.094 E5.74675
G1 X74.1 Y124.267 E5.77796
G1 X73.729 Y123.406 E5.80914
G1 X73.433 Y122.516 E5.84034
G1 X73.214 Y121.604 E5.87153
G1 X73.073 Y120.677 E5.90272
G1 X73.013 Y119.788 E5.93235
G1 X73.004 Y119.455 E5.94343
G1 X73 Y119.158 E5.95331
G1 X73.001 Y106.038 E6.38969
G1 X73.012 Y105.32 E6.41357
G1 X73.1 Y104.096 E6.45439
G1 X73.136 Y103.814 E6.46384
G1 X73.182 Y103.488 E6.47479
G1 X73.298 Y102.764 E6.49918
G1 X73.414 Y102.093 E6.52183
G1 X73.613 Y101.177 E6.553
G1 X73.889 Y100.28 E6.58422
G1 X74.383 Y99.11 E6.62646
G1 X74.787 Y98.289 E6.65689
G1 X74.922 Y98.024 E6.66679
G1 X75.204 Y97.488 E6.68693
G1 X75.441 Y97.061 E6.70317
G1 X75.945 Y96.27 E6.73437
G1 X76.515 Y95.525 E6.76557
G1 X77.062 Y94.917 E6.79277
G1 X77.596 Y94.366 E6.81829
G1 X77.808 Y94.153 E6.82829
G1 X78.372 Y93.602 E6.85451
G1 X79.07 Y92.975 E6.88572
G0 F6000 X79.337 Y93.274
G1 F1200 X80.074 Y92.721 E6.91636
G1 X81.094 Y92.104 E6.95601
G1 X81.792 Y91.734 E6.98229
G1 X82.066 Y91.594 E6.99252
G1 X82.757 Y91.253 E7.01815
G1 X83.6 Y90.882 E7.04878
G1 X84.471 Y90.586 E7.07938
G1 X85.644 Y90.314 E7.11943
G1 X86.53 Y90.161 E7.14933
G1 X86.858 Y90.109 E7.16038
G1 X87.548 Y90.012 E7.18356
G1 X88.726 Y89.913 E7.22287
G1 X89.046 Y89.904 E7.23352
G1 X89.344 Y89.9 E7.24343
G1 X130.293 Y89.9 E8.6054
G1 X131.173 Y89.912 E8.63467
G1 X132.348 Y89.996 E8.67385
G1 X132.631 Y90.032 E8.68334
G1 X132.949 Y90.077 E8.69403
G1 X133.68 Y90.194 E8.71865
G1 X134.352 Y90.311 E8.74133
G1 X135.251 Y90.508 E8.77195
G1 X136.13 Y90.783 E8.80258
G1 X137.209 Y91.24 E8.84155
G1 X138.021 Y91.639 E8.87164
G1 X138.304 Y91.784 E8.88222
G1 X138.886 Y92.092 E8.90412
G1 X139.68 Y92.558 E8.93474
G1 X140.431 Y93.09 E8.96535
G1 X141.305 Y93.849 E9.00385
G1 X141.856 Y94.383 E9.02937
G1 X142.061 Y94.588 E9.03902
G1 X142.612 Y95.152 E9.06524
G1 X143.226 Y95.837 E9.09584
G1 X143.779 Y96.574 E9.12648
G1 X144.396 Y97.594 E9.16613
G1 X144.766 Y98.292 E9.19241
G1 X144.908 Y98.572 E9.20285
G1 X145.249 Y99.264 E9.22851
G1 X145.62 Y100.106 E9.25911
G1 X145.916 Y100.978 E9.28974
G1 X146.184 Y102.129 E9.32905
G1 X146.333 Y102.984 E9.35791
G1 X146.382 Y103.294 E9.36835
G1 X146.482 Y103.989 E9.39171
G1 X146.585 Y105.182 E9.43153
G1 X146.594 Y105.483 E9.44155
G1 X146.599 Y105.799 E9.45206
G1 X146.599 Y118.895 E9.88763
G1 X146.59 Y119.622 E9.91182
G1 X146.539 Y120.541 E9.94243
G1 X146.408 Y121.453 E9.97307
G1 X146.198 Y122.349 E10.00368
G1 X145.912 Y123.224 E10.0343
G1 X145.551 Y124.071 E10.06492
G1 X145.117 Y124.883 E10.09555
G1 X144.615 Y125.655 E10.12617
G1 X144.047 Y126.38 E10.15681
G1 X143.419 Y127.053 E10.18742
G1 X142.735 Y127.669 E10.21804
G1 X142 Y128.223 E10.24865
G1 X141.22 Y128.712 E10.27927
G1 X140.4 Y129.131 E10.3099
G1 X139.547 Y129.477 E10.34051
G1 X138.667 Y129.748 E10.37114
G1 X137.767 Y129.941 E10.40175
G1 X136.853 Y130.056 E10.43239
G1 X136.288 Y130.087 E10.45121
G1 X135.967 Y130.096 E10.46189
G1 X135.67 Y130.1 E10.47177
G1 X132.556 Y130.099 E10.57535
G1 X131.855 Y130.089 E10.59866
G1 X130.936 Y130.036 E10.62928
G1 X129.787 Y129.855 E10.66797
G1 X128.875 Y129.66 E10.69899
G1 X126.316 Y129.147 E10.78579
G1 X123.841 Y128.723 E10.86931
G1 X121.295 Y128.361 E10.95484
G1 X118.816 Y128.08 E11.03782
G1 X116.283 Y127.865 E11.12237
G1 X113.778 Y127.724 E11.20582
G1 X111.231 Y127.653 E11.29057
G1 X108.719 Y127.653 E11.37412
G1 X106.168 Y127.726 E11.459
G1 X103.64 Y127.869 E11.54322
G1 X101.155 Y128.082 E11.62617
G1 X98.621 Y128.37 E11.71099
G1 X96.107 Y128.729 E11.79546
G1 X93.626 Y129.154 E11.87918
G1 X91.135 Y129.655 E11.96369
G1 X90.516 Y129.793 E11.98478
G1 X90.059 Y129.887 E12.0003
G1 X89.149 Y130.027 E12.03092
G1 X88.288 Y130.087 E12.05963
G1 X87.968 Y130.096 E12.07028
G1 X87.67 Y130.1 E12.08019
G1 X84.57 Y130.099 E12.1833
G1 X83.872 Y130.09 E12.20651
G1 X82.953 Y130.038 E12.23713
G1 X82.042 Y129.907 E12.26774
G1 X81.146 Y129.697 E12.29835
G1 X80.271 Y129.41 E12.32898
G1 X79.424 Y129.048 E12.35961
G1 X78.612 Y128.614 E12.39024
G1 X77.841 Y128.112 E12.42084
G1 X77.116 Y127.544 E12.45147
G1 X76.443 Y126.915 E12.48211
G1 X75.828 Y126.231 E12.5127
G1 X75.274 Y125.496 E12.54331
G1 X74.786 Y124.715 E12.57394
G1 X74.367 Y123.895 E12.60457
G1 X74.021 Y123.042 E12.63519
G1 X73.751 Y122.162 E12.6658
G1 X73.558 Y121.261 E12.69645
G1 X73.444 Y120.348 E12.72705
G1 X73.413 Y119.777 E12.74607
G1 X73.404 Y119.444 E12.75715
G1 X73.4 Y119.158 E12.76666
G1 X73.401 Y106.045 E13.2028
G1 X73.412 Y105.327 E13.22669
G1 X73.496 Y104.147 E13.26603
G1 X73.532 Y103.865 E13.27549
G1 X73.577 Y103.551 E13.28604
G1 X73.692 Y102.832 E13.31026
G1 X73.808 Y102.161 E13.33291
G1 X74.004 Y101.262 E13.36351
G1 X74.277 Y100.383 E13.39412
G1 X74.742 Y99.287 E13.43372
G1 X75.146 Y98.466 E13.46416
G1 X75.276 Y98.211 E13.47368
G1 X75.558 Y97.675 E13.49382
G1 X75.787 Y97.261 E13.50956
G1 X76.283 Y96.485 E13.54019
G1 X76.844 Y95.755 E13.57081
G1 X77.349 Y95.195 E13.59589
G1 X77.883 Y94.644 E13.62141
G1 X78.088 Y94.439 E13.63105
G1 X78.652 Y93.888 E13.65728
G1 X79.337 Y93.274 E13.68787
G0 F6000 X79.604 Y93.572
G1 F1200 X80.328 Y93.032 E13.71791
G1 X81.282 Y92.458 E13.75494
G1 X81.98 Y92.088 E13.78122
G1 X82.243 Y91.953 E13.79105
G1 X82.934 Y91.612 E13.81668
G1 X83.761 Y91.249 E13.84672
G1 X84.617 Y90.96 E13.87677
G1 X85.712 Y90.708 E13.91414
G1 X86.598 Y90.555 E13.94405
G1 X86.914 Y90.505 E13.95469
G1 X87.604 Y90.408 E13.97786
G1 X88.737 Y90.313 E14.01568
G1 X89.057 Y90.304 E14.02633
G1 X89.344 Y90.3 E14.03587
G1 X130.293 Y90.3 E15.39784
G1 X131.166 Y90.312 E15.42688
G1 X132.297 Y90.393 E15.46459
G1 X132.58 Y90.429 E15.47408
G1 X132.887 Y90.472 E15.48439
G1 X133.612 Y90.588 E15.50881
G1 X134.284 Y90.705 E15.5315
G1 X135.166 Y90.899 E15.56154
G1 X136.027 Y91.171 E15.59157
G1 X137.032 Y91.599 E15.6279
G1 X137.844 Y91.998 E15.65799
G1 X138.117 Y92.138 E15.6682
G1 X138.699 Y92.446 E15.6901
G1 X139.478 Y92.903 E15.72014
G1 X140.213 Y93.427 E15.75016
G1 X141.027 Y94.136 E15.78606
G1 X141.578 Y94.67 E15.81158
G1 X141.775 Y94.867 E15.82085
G1 X142.326 Y95.431 E15.84708
G1 X142.928 Y96.104 E15.87711
G1 X143.468 Y96.828 E15.90715
G1 X144.042 Y97.782 E15.94418
G1 X144.412 Y98.48 E15.97045
G1 X144.549 Y98.748 E15.98047
G1 X144.89 Y99.44 E16.00612
G1 X145.253 Y100.267 E16.03616
G1 X145.542 Y101.123 E16.06621
G1 X145.79 Y102.198 E16.10291
G1 X145.939 Y103.053 E16.13177
G1 X145.986 Y103.351 E16.14181
G1 X146.086 Y104.046 E16.16516
G1 X146.185 Y105.194 E16.20349
G1 X146.194 Y105.495 E16.2135
G1 X146.199 Y105.799 E16.22361
G1 X146.199 Y118.89 E16.65902
G1 X146.19 Y119.617 E16.6832
G1 X146.139 Y120.519 E16.71325
G1 X146.008 Y121.413 E16.7433
G1 X145.799 Y122.291 E16.77332
G1 X145.513 Y123.148 E16.80337
G1 X145.152 Y123.976 E16.83342
G1 X144.72 Y124.768 E16.86342
G1 X144.219 Y125.52 E16.89348
G1 X143.653 Y126.224 E16.92352
G1 X143.028 Y126.875 E16.95354
G1 X142.347 Y127.469 E16.98359
G1 X141.616 Y128 E17.01364
G1 X140.842 Y128.464 E17.04366
G1 X140.029 Y128.858 E17.07371
G1 X139.185 Y129.178 E17.10373
G1 X138.315 Y129.423 E17.13379
G1 X137.428 Y129.589 E17.1638
G1 X136.277 Y129.687 E17.20222
G1 X135.956 Y129.696 E17.2129
G1 X135.67 Y129.7 E17.22242
G1 X132.562 Y129.699 E17.32579
G1 X131.861 Y129.689 E17.34911
G1 X130.959 Y129.636 E17.37916
G1 X129.871 Y129.464 E17.4158
G1 X128.959 Y129.269 E17.44682
G1 X126.391 Y128.754 E17.53393
G1 X123.899 Y128.328 E17.61801
G1 X121.36 Y127.967 E17.70331
G1 X118.858 Y127.683 E17.78706
G1 X116.304 Y127.466 E17.87231
G1 X113.777 Y127.324 E17.9565
G1 X111.242 Y127.253 E18.04084
G1 X108.708 Y127.253 E18.12512
G1 X106.168 Y127.326 E18.20964
G1 X103.62 Y127.47 E18.29452
G1 X101.077 Y127.688 E18.37941
G1 X98.591 Y127.971 E18.46263
G1 X96.049 Y128.333 E18.54803
G1 X93.558 Y128.76 E18.63209
G1 X91.046 Y129.265 E18.71731
G1 X90.428 Y129.403 E18.73837
G1 X89.981 Y129.495 E18.75355
G1 X89.089 Y129.632 E18.78357
G1 X88.277 Y129.687 E18.81064
G1 X87.957 Y129.696 E18.82128
G1 X87.67 Y129.7 E18.83083
G1 X84.575 Y129.699 E18.93377
G1 X83.877 Y129.69 E18.95699
G1 X82.976 Y129.639 E18.987
G1 X82.082 Y129.507 E19.01706
G1 X81.204 Y129.298 E19.04708
G1 X80.347 Y129.011 E19.07714
G1 X79.52 Y128.65 E19.10715
G1 X78.727 Y128.217 E19.1372
G1 X77.976 Y127.716 E19.16723
G1 X77.272 Y127.15 E19.19727
G1 X76.621 Y126.524 E19.22731
G1 X76.028 Y125.843 E19.25735
G1 X75.498 Y125.112 E19.28738
G1 X75.034 Y124.337 E19.31742
G1 X74.64 Y123.524 E19.34747
G1 X74.32 Y122.68 E19.37749
G1 X74.076 Y121.81 E19.40754
G1 X73.91 Y120.922 E19.43759
G1 X73.813 Y119.767 E19.47614
G1 X73.804 Y119.434 E19.48722
G1 X73.8 Y119.158 E19.4964
G1 X73.801 Y106.051 E19.93234
G1 X73.812 Y105.333 E19.95623
G1 X73.893 Y104.197 E19.99411
G1 X73.929 Y103.915 E20.00356
G1 X73.972 Y103.613 E20.01371
G1 X74.086 Y102.9 E20.03772
G1 X74.202 Y102.229 E20.06037
G1 X74.395 Y101.347 E20.0904
G1 X74.666 Y100.486 E20.12042
G1 X75.101 Y99.463 E20.1574
G1 X75.505 Y98.642 E20.18783
G1 X75.63 Y98.397 E20.19698
G1 X75.912 Y97.861 E20.21712
G1 X76.134 Y97.461 E20.23234
G1 X76.62 Y96.701 E20.26234
G1 X77.172 Y95.986 E20.29239
G1 X77.636 Y95.473 E20.31539
G1 X78.17 Y94.922 E20.34091
G1 X78.367 Y94.725 E20.35018
G1 X78.931 Y94.174 E20.3764
G1 X79.604 Y93.572 E20.40644
G1 F1500 E13.90644
;MESH:support_sharp.STL
G0 F6000 X88.878 Y99.848
G0 X89.048 Y100.92
G0 X87.695 Y101.487
G0 X86.518 Y102.087
G0 X85.587 Y103.018
G0 X84.987 Y104.195
G0 X84.771 Y105.56
G0 X84.782 Y118.718
G0 X87.218 Y118.718
G0 X87.218 Y103.718
G0 X132.428 Y104.072
G0 X132.6 Y118.9
;TYPE:WALL-INNER
G1 F1500 E20.40644
G1 F1200 X132.6 Y103.9 E20.90534
G1 X87.4 Y103.9 E22.4087
G1 X87.4 Y118.9 E22.9076
G1 X84.6 Y118.9 E23.00073
G1 X84.6 Y105.549 E23.44478
G1 X84.823 Y104.141 E23.4922
G1 X85.447 Y102.917 E23.53789
G1 X86.417 Y101.947 E23.58352
G1 X87.641 Y101.323 E23.62921
G1 X89.057 Y101.1 E23.67689
G1 X130.951 Y101.1 E25.07029
G1 X132.359 Y101.323 E25.1177
G1 X133.583 Y101.947 E25.1634
G1 X134.553 Y102.917 E25.20903
G1 X135.177 Y104.141 E25.25472
G1 X135.4 Y105.549 E25.30213
G1 X135.4 Y118.9 E25.74619
G1 X132.6 Y118.9 E25.83932
G0 F6000 X132.2 Y119.3
;TYPE:WALL-OUTER
G1 F1200 X132.2 Y104.3 E26.33822
G1 X87.8 Y104.3 E27.81497
G1 X87.8 Y119.3 E28.31387
G1 X84.2 Y119.3 E28.43361
G1 X84.2 Y105.518 E28.892
G1 X84.438 Y104.016 E28.94258
G1 X85.12 Y102.678 E28.99253
G1 X86.178 Y101.62 E29.0423
G1 X87.516 Y100.938 E29.09225
G1 X89.027 Y100.7 E29.14312
G1 X130.982 Y100.7 E30.53855
G1 X132.484 Y100.938 E30.58913
G1 X133.822 Y101.62 E30.63908
G1 X134.88 Y102.678 E30.68884
G1 X135.562 Y104.016 E30.73879
G1 X135.8 Y105.518 E30.78937
G1 X135.8 Y119.3 E31.24777
G1 X132.2 Y119.3 E31.3675
G0 F6000 X132.47 Y119.03
G0 X132.71 Y118.51
G0 X132.99 Y118.51
;TYPE:SKIN
G1 F1200 X132.99 Y103.51 E31.8664
G1 X87.01 Y103.51 E33.39571
G1 X87.01 Y118.51 E33.89461
G1 X84.99 Y118.51 E33.96179
G1 X84.99 Y105.584 E34.39171
G1 X85.2 Y104.259 E34.43633
G1 X85.766 Y103.148 E34.4778
G1 X86.648 Y102.266 E34.51929
G1 X87.759 Y101.7 E34.56076
G1 X89.092 Y101.49 E34.60564
G1 X130.916 Y101.49 E35.99672
G1 X132.241 Y101.7 E36.04134
G1 X133.352 Y102.266 E36.08281
G1 X134.234 Y103.148 E36.12429
G1 X134.8 Y104.259 E36.16576
G1 X135.01 Y105.584 E36.21038
G1 X135.01 Y118.51 E36.6403
G1 X132.99 Y118.51 E36.70749
G0 F6000 X132.71 Y118.51
G0 X135.218 Y118.718
G0 X135.229 Y105.56
G0 X135.013 Y104.195
G0 X134.413 Y103.018
G0 X133.576 Y102.181
G0 X132.817 Y101.68
G0 X132.618 Y102.071
G1 F1200 X134.428 Y103.881 E36.79263
G0 F6000 X134.712 Y104.73
G1 F1200 X131.769 Y101.788 E36.93103
G0 F6000 X131.096 Y101.681
G1 F1200 X132.764 Y103.349 E37.00949
G0 F6000 X133.148 Y103.733
